icon/lg/upcase.svg

<?xml version="1.0" encoding="UTF-8" standalone="no"?>
<svg viewBox="0 0 512 108" version="1.1" xmlns="http://www.w3.org/2000/svg" xmlns:xlink="http://www.w3.org/1999/xlink" preserveAspectRatio="xMidYMid" height="1em" width="1em">
  <defs>
    <linearGradient x1="50.1164581%" y1="-0.0934574399%" x2="50.1164581%" y2="84.0611038%" id="linearGradient-1">
      <stop stop-color="#487BF6" offset="0%"/>
      <stop stop-color="#0093CB" offset="100%"/>
    </linearGradient>
  </defs>
  <g>
    <path d="M0,68.7188624 L0,21.184374 C0,19.6779993 1.17162471,18.5063746 2.67799935,18.5063746 L16.7374959,18.5063746 C18.2438705,18.5063746 19.4154953,19.6779993 19.4154953,21.184374 L19.4154953,68.2167375 C19.4154953,82.443609 26.6126185,89.9754822 38.3288656,89.9754822 C50.0451128,89.9754822 57.242236,82.7783589 57.242236,68.8862373 L57.242236,21.184374 C57.242236,19.6779993 58.4138607,18.5063746 59.9202354,18.5063746 L73.9797319,18.5063746 C75.4861066,18.5063746 76.6577313,19.6779993 76.6577313,21.184374 L76.6577313,68.0493625 C76.6577313,94.661981 61.7613599,107.717228 38.1614907,107.717228 C14.3942465,107.717228 0,94.4946061 0,68.7188624 Z M98.249101,21.184374 C98.249101,19.6779993 99.4207257,18.5063746 100.9271,18.5063746 L134.234717,18.5063746 C155.156587,18.5063746 167.877084,30.8921216 167.877084,48.8012422 L167.877084,49.1359922 C167.877084,69.3883622 152.143838,79.9329846 132.393593,79.9329846 L117.664596,79.9329846 L117.664596,103.700229 C117.664596,105.206603 116.492972,106.378228 114.986597,106.378228 L100.9271,106.378228 C99.4207257,106.378228 98.249101,105.206603 98.249101,103.700229 L98.249101,21.184374 Z M132.728343,62.8607388 C142.43609,62.8607388 147.959464,57.1699902 147.959464,49.638117 L147.959464,49.4707421 C147.959464,40.7672442 141.933965,36.2481203 132.226218,36.2481203 L119.840471,36.2481203 C118.334096,36.2481203 117.162471,37.419745 117.162471,38.9261196 L117.162471,60.5174894 C117.162471,62.023864 118.334096,63.1954887 119.840471,63.1954887 L132.728343,63.1954887 L132.728343,62.8607388 Z M180.764956,62.6933638 L180.764956,62.3586139 C180.764956,37.419745 199.510951,17 226.625695,17 C242.024191,17 250.225564,22.0212488 258.594312,28.2141223 C259.765937,29.0509971 259.933312,30.7247466 259.096437,31.8963714 L251.229814,43.1104936 C250.392939,44.2821183 248.719189,44.4494933 247.547565,43.7799935 C240.852566,39.2608696 234.324943,34.9091206 226.290945,34.9091206 C211.561948,34.9091206 200.849951,47.1274926 200.849951,62.191239 L200.849951,62.8607388 C200.849951,77.9244851 213.068323,90.812357 228.132069,90.1428571 C236.333442,89.8081072 241.689441,87.2974828 247.212815,81.9414841 C248.217064,80.9372344 249.723439,80.9372344 250.727689,81.7741092 L260.100686,89.9754822 C261.104936,90.9797319 261.272311,92.6534815 260.268061,93.6577313 C252.234063,102.695979 241.522066,107.884603 225.621445,107.884603 C200.013076,107.884603 180.764956,87.7996077 180.764956,62.6933638 Z M362.366787,90.812357 L371.572409,82.1088591 C372.576659,81.1046093 374.250409,81.2719843 375.254658,82.1088591 C381.949657,88.4691076 389.648905,90.4776071 398.854528,90.4776071 C406.721151,90.4776071 411.575025,87.2974828 411.575025,82.2762341 L411.575025,81.9414841 C411.575025,77.0876103 408.562275,74.5769859 393.833279,70.7273619 C376.091533,66.208238 364.710036,61.3543642 364.710036,43.9473684 L364.710036,43.6126185 C364.710036,27.7119974 377.430533,17.167375 395.507028,17.167375 C407.390651,17.167375 417.600523,20.6822491 426.136646,26.7077476 C427.308271,27.5446224 427.475646,29.218372 426.806146,30.3899967 L419.609023,40.7672442 C418.772148,41.9388689 417.265773,42.1062439 416.094148,41.436744 C409.0644,36.9176201 402.202027,34.2396208 395.339653,34.2396208 C387.975155,34.2396208 384.125531,37.58712 384.125531,41.9388689 L384.125531,42.2736188 C384.125531,47.9643674 387.80778,49.9728669 403.038902,53.822491 C420.780647,58.5089899 430.823145,64.8692383 430.823145,80.1003596 L430.823145,80.4351095 C430.823145,97.8421053 417.600523,107.717228 398.519778,107.717228 C386.134031,107.717228 371.739784,104.202354 362.534161,94.829356 C361.195162,93.4903563 361.195162,91.8166067 362.366787,90.812357 Z M445.050016,21.184374 C445.050016,19.6779993 446.221641,18.5063746 447.728016,18.5063746 L508.652501,18.5063746 C510.158875,18.5063746 511.3305,19.6779993 511.3305,21.184374 L511.3305,33.0679961 C511.3305,34.5743707 510.158875,35.7459954 508.652501,35.7459954 L466.808761,35.7459954 C465.302386,35.7459954 464.130762,36.9176201 464.130762,38.4239948 L464.130762,50.9771167 C464.130762,52.4834913 465.302386,53.6551161 466.808761,53.6551161 L502.961752,53.6551161 C504.468127,53.6551161 505.639752,54.8267408 505.639752,56.3331154 L505.639752,68.2167375 C505.639752,69.7231121 504.468127,70.8947368 502.961752,70.8947368 L466.808761,70.8947368 C465.302386,70.8947368 464.130762,72.0663616 464.130762,73.5727362 L464.130762,86.795358 C464.130762,88.3017326 465.302386,89.4733573 466.808761,89.4733573 L509.322001,89.4733573 C510.828375,89.4733573 512,90.644982 512,92.1513567 L512,104.034979 C512,105.541353 510.828375,106.712978 509.322001,106.712978 L447.728016,106.712978 C446.221641,106.712978 445.050016,105.541353 445.050016,104.034979 L445.050016,21.184374 Z" fill="#5F5F5F"/>
    <path d="M307.526601,1.73421956 C297.834707,15.7707552 270.26294,56.3764475 261.406555,70.2458816 C260.236844,71.9168977 260.738148,74.2563203 262.242063,75.5931332 C264.414384,77.2641494 267.422213,79.603572 269.594534,81.4416897 C271.26555,82.611401 273.437871,82.611401 275.108887,81.2745881 C290.983541,67.5722557 294.158471,65.0657315 303.850365,56.2093459 C307.693702,52.700212 313.542259,52.700212 317.385596,56.2093459 C330.085319,67.5722557 335.766773,71.9168977 346.294175,81.4416897 C347.79809,82.7785027 350.137512,82.9456043 351.641427,81.6087914 C353.980849,79.7706736 357.15578,77.431251 359.328101,75.7602348 C360.999117,74.4234219 361.33332,72.2511009 360.163609,70.4129832 C351.140122,56.3764475 323.735457,15.9378568 314.043563,1.90132117 C312.706751,-0.605203047 309.197617,-0.605203047 307.526601,1.73421956 L307.526601,1.73421956 L307.526601,1.73421956 Z" fill="url(#linearGradient-1)"/>
  </g>
</svg>

<svg width="512" height="108" xmlns="http://www.w3.org/2000/svg" preserveAspectRatio="xMidYMid"><defs><linearGradient x1="50.116%" y1="-.093%" x2="50.116%" y2="84.061%" id="a"><stop stop-color="#487BF6" offset="0%"/><stop stop-color="#0093CB" offset="100%"/></linearGradient></defs><path d="M0 68.719V21.184a2.644 2.644 0 0 1 2.678-2.678h14.06a2.644 2.644 0 0 1 2.677 2.678v47.033c0 14.227 7.198 21.758 18.914 21.758 11.716 0 18.913-7.197 18.913-21.089V21.184a2.644 2.644 0 0 1 2.678-2.678h14.06a2.644 2.644 0 0 1 2.678 2.678V68.05c0 26.613-14.897 39.668-38.497 39.668C14.394 107.717 0 94.495 0 68.72Zm98.25-47.535a2.644 2.644 0 0 1 2.677-2.678h33.308c20.922 0 33.642 12.386 33.642 30.295v.335c0 20.252-15.733 30.797-35.483 30.797h-14.73V103.7a2.644 2.644 0 0 1-2.677 2.678h-14.06a2.644 2.644 0 0 1-2.678-2.678V21.184Zm34.478 41.677c9.708 0 15.231-5.691 15.231-13.223v-.167c0-8.704-6.025-13.223-15.733-13.223H119.84a2.644 2.644 0 0 0-2.678 2.678v21.591a2.644 2.644 0 0 0 2.678 2.678h12.888v-.334Zm48.037-.168v-.334c0-24.94 18.746-45.359 45.86-45.359 15.4 0 23.6 5.021 31.97 11.214 1.17.837 1.338 2.51.501 3.682L251.23 43.11c-.837 1.172-2.51 1.34-3.682.67-6.695-4.52-13.223-8.87-21.257-8.87-14.73 0-25.441 12.217-25.441 27.281v.67c0 15.063 12.218 27.951 27.282 27.282 8.201-.335 13.557-2.846 19.08-8.202a2.589 2.589 0 0 1 3.516-.167l9.373 8.201c1.004 1.005 1.171 2.678.167 3.683-8.034 9.038-18.746 14.227-34.647 14.227-25.608 0-44.856-20.085-44.856-45.192Zm181.602 28.12 9.205-8.704c1.005-1.004 2.678-.837 3.683 0 6.695 6.36 14.394 8.369 23.6 8.369 7.866 0 12.72-3.18 12.72-8.202v-.335c0-4.853-3.013-7.364-17.742-11.214-17.741-4.519-29.123-9.373-29.123-26.78v-.334c0-15.901 12.72-26.446 30.797-26.446 11.884 0 22.094 3.515 30.63 9.54 1.171.838 1.339 2.511.67 3.683l-7.198 10.377c-.837 1.172-2.343 1.34-3.515.67-7.03-4.52-13.892-7.197-20.754-7.197-7.365 0-11.214 3.347-11.214 7.699v.335c0 5.69 3.682 7.699 18.913 11.548C420.78 58.51 430.823 64.87 430.823 80.1v.335c0 17.407-13.222 27.282-32.303 27.282-12.386 0-26.78-3.515-35.986-12.888-1.339-1.339-1.339-3.012-.167-4.017Zm82.683-69.629a2.644 2.644 0 0 1 2.678-2.678h60.925a2.644 2.644 0 0 1 2.677 2.678v11.884a2.644 2.644 0 0 1-2.677 2.678h-41.844a2.644 2.644 0 0 0-2.678 2.678v12.553a2.644 2.644 0 0 0 2.678 2.678h36.153a2.644 2.644 0 0 1 2.678 2.678v11.884a2.644 2.644 0 0 1-2.678 2.678h-36.153a2.644 2.644 0 0 0-2.678 2.678v13.222a2.644 2.644 0 0 0 2.678 2.678h42.513A2.644 2.644 0 0 1 512 92.151v11.884a2.644 2.644 0 0 1-2.678 2.678h-61.594a2.644 2.644 0 0 1-2.678-2.678v-82.85Z" fill="#5F5F5F"/><path d="M307.527 1.734c-9.692 14.037-37.264 54.642-46.12 68.512-1.17 1.67-.669 4.01.835 5.347 2.172 1.671 5.18 4.01 7.353 5.849 1.67 1.17 3.843 1.17 5.514-.167 15.875-13.703 19.05-16.21 28.741-25.066a10.017 10.017 0 0 1 13.536 0c12.7 11.363 18.38 15.708 28.908 25.233 1.504 1.337 3.844 1.504 5.347.167 2.34-1.838 5.515-4.178 7.687-5.849 1.671-1.337 2.005-3.509.836-5.347-9.024-14.037-36.429-54.475-46.12-68.512-1.337-2.506-4.846-2.506-6.517-.167Z" fill="url(#a)"/></svg>
